packages/hms_room_kit/lib/src/assets/icons/login.svg

<svg width="25" height="24" viewBox="0 0 25 24" fill="none" xmlns="http://www.w3.org/2000/svg">
<g id="Join, Log-in">
<path id="Vector" fill-rule="evenodd" clip-rule="evenodd" d="M14.3 3.9C14.3 3.40294 14.7029 3 15.2 3H18.8C19.5161 3 20.2028 3.28446 20.7092 3.79081C21.2155 4.29716 21.5 4.98392 21.5 5.7V18.3C21.5 19.0161 21.2155 19.7028 20.7092 20.2092C20.2028 20.7155 19.5161 21 18.8 21H15.2C14.7029 21 14.3 20.5971 14.3 20.1C14.3 19.6029 14.7029 19.2 15.2 19.2H18.8C19.0387 19.2 19.2676 19.1052 19.4364 18.9364C19.6052 18.7676 19.7 18.5387 19.7 18.3V5.7C19.7 5.46131 19.6052 5.23239 19.4364 5.0636C19.2676 4.89482 19.0387 4.8 18.8 4.8H15.2C14.7029 4.8 14.3 4.39706 14.3 3.9ZM10.0636 6.86359C10.4151 6.51212 10.9849 6.51212 11.3364 6.86359L15.8344 11.3616C15.841 11.3681 15.8475 11.3748 15.8539 11.3816C16.0065 11.5428 16.1 11.7605 16.1 12C16.1 12.1249 16.0745 12.2439 16.0285 12.3521C15.9878 12.4481 15.9296 12.5385 15.8539 12.6184C15.8475 12.6252 15.841 12.6318 15.8344 12.6384L11.3364 17.1364C10.9849 17.4879 10.4151 17.4879 10.0636 17.1364C9.71213 16.7849 9.71213 16.2151 10.0636 15.8636L13.0272 12.9H4.4C3.90294 12.9 3.5 12.497 3.5 12C3.5 11.5029 3.90294 11.1 4.4 11.1H13.0272L10.0636 8.13638C9.71213 7.78491 9.71213 7.21506 10.0636 6.86359Z" fill="white"/>
</g>
</svg>

<svg xmlns="http://www.w3.org/2000/svg" width="25" height="24" fill="none" viewBox="0 0 25 24"><path fill="#fff" fill-rule="evenodd" d="M14.3 3.9a.9.9 0 0 1 .9-.9h3.6a2.7 2.7 0 0 1 2.7 2.7v12.6a2.7 2.7 0 0 1-2.7 2.7h-3.6a.9.9 0 1 1 0-1.8h3.6a.9.9 0 0 0 .9-.9V5.7a.9.9 0 0 0-.9-.9h-3.6a.9.9 0 0 1-.9-.9Zm-4.236 2.964a.9.9 0 0 1 1.272 0l4.498 4.498a.897.897 0 0 1 0 1.277l-4.498 4.497a.9.9 0 1 1-1.272-1.272l2.963-2.964H4.4a.9.9 0 0 1 0-1.8h8.627l-2.963-2.964a.9.9 0 0 1 0-1.272Z" clip-rule="evenodd"/></svg>
